static/images/icon-linkedin.svg

<svg width="34" height="34" viewBox="0 0 34 34" fill="none" xmlns="http://www.w3.org/2000/svg">
<g clip-path="url(#clip0_287_1355)">
<path d="M3.98438 0.150391H30.0156C32.1299 0.150391 33.8496 1.8701 33.8496 3.98438V30.0156C33.8496 32.1299 32.1299 33.8496 30.0156 33.8496H3.98438C1.8701 33.8496 0.150391 32.1299 0.150391 30.0156V3.98438C0.150391 1.8701 1.8701 0.150391 3.98438 0.150391ZM3.98438 2.50586C3.16925 2.50586 2.50586 3.16925 2.50586 3.98438V30.0156C2.50586 30.8308 3.16925 31.4941 3.98438 31.4941H30.0156C30.8308 31.4941 31.4941 30.8308 31.4941 30.0156V3.98438C31.4941 3.16925 30.8308 2.50586 30.0156 2.50586H3.98438ZM22.4658 12.9668C24.7838 12.9668 26.117 13.6994 26.8828 14.8945C27.6587 16.1058 27.873 17.8214 27.873 19.833V27.9395H23.5918V20.7627C23.5918 19.9005 23.5737 18.8787 23.2432 18.0723C23.0762 17.6651 22.8272 17.3055 22.4551 17.0488C22.0825 16.792 21.5988 16.6465 20.9785 16.6465C19.7218 16.6465 18.9407 17.1425 18.4844 17.9092C18.0366 18.6616 17.9121 19.656 17.9121 20.6387V27.9395H13.6973V13.2324H17.9121V15.2734H18.1572L18.1992 15.1934C18.7912 14.0699 20.2563 12.9669 22.4658 12.9668ZM10.4756 13.2324V27.9395H6.12695V13.2324H10.4756ZM8.36816 5.72852C9.78718 5.72852 10.9395 6.88086 10.9395 8.30078C10.9393 9.72112 9.78707 10.873 8.36816 10.873C6.94359 10.873 5.79506 9.72112 5.79492 8.30078C5.79492 6.88086 6.94349 5.72855 8.36816 5.72852Z" fill="#282828" stroke="#282828" stroke-width="0.3"/>
</g>
<defs>
<clipPath id="clip0_287_1355">
<rect width="34" height="34" fill="white"/>
</clipPath>
</defs>
</svg>

<svg xmlns="http://www.w3.org/2000/svg" width="34" height="34" fill="none" viewBox="0 0 34 34"><g clip-path="url(#a)"><path fill="#282828" stroke="#282828" stroke-width=".3" d="M4 .2h26c2.1 0 3.8 1.7 3.8 3.8v26c0 2.1-1.7 3.8-3.8 3.8H4A4 4 0 0 1 .2 30V4C.2 1.9 1.9.2 4 .2Zm0 2.3Q2.7 2.6 2.5 4v26q.1 1.3 1.5 1.5h26q1.3-.2 1.5-1.5V4q-.2-1.3-1.5-1.5zM22.5 13q3.3 0 4.4 1.9t1 5v8h-4.3v-7.1q.1-1.5-.4-2.7-.2-.6-.7-1-.6-.5-1.5-.5-1.8 0-2.5 1.3t-.6 2.7V28h-4.2V13.2h4.2v2h.3c.6-1.1 2-2.2 4.3-2.2Zm-12 .2V28H6V13.2zM8.4 5.7a2.6 2.6 0 1 1 0 5.2 2.6 2.6 0 0 1 0-5.2Z"/></g><defs><clipPath id="a"><path fill="#fff" d="M0 0h34v34H0z"/></clipPath></defs></svg>
